assets/images/reviews-img1.svg

<svg width="80" height="80" viewBox="0 0 80 80" fill="none" xmlns="http://www.w3.org/2000/svg">
<circle cx="40" cy="40" r="40" fill="#FE9A02"/>
<path d="M29.723 35.9257C27.6516 35.329 27.7994 35.329 28.0951 33.3902C28.2434 32.1972 28.391 31.1533 28.391 29.96C28.391 29.0656 28.6871 28.7668 29.5747 28.7668C31.2021 28.7668 31.0544 28.7668 30.9063 27.1264C30.6104 24.5912 31.0544 22.2047 32.5335 20.1167C33.4214 18.9235 34.4572 18.3272 35.9365 18.178C36.2319 18.178 36.5283 18.178 36.8241 18.3273C37.12 18.3273 37.4157 18.4762 37.7116 18.6254C37.7116 18.3273 37.8597 17.8794 37.7116 17.5815C36.8241 14.599 38.7473 11.3176 41.8544 11.0195C42.89 10.8703 43.9257 11.616 44.8131 11.9142C46.5884 12.3615 46.7364 14.0022 46.8844 15.4937C47.0325 16.3881 47.0325 17.4321 45.701 17.8795C45.4051 18.0288 45.2572 18.9235 45.1092 19.52C46.8844 19.9673 46.8844 19.222 48.5118 18.6254C50.1392 18.9235 49.8433 19.3714 50.879 19.3714H61.9753C62.5669 19.3714 63.0109 19.6695 63.6025 19.8184C63.6025 19.222 64.4903 19.6695 64.934 20.8625C66.2653 20.7135 67.5971 20.7135 68.7809 20.5643C69.3727 20.5643 70.1124 20.5643 70.7041 20.7138C70.8522 20.7138 71 21.0118 71 21.0118C71 21.161 70.7041 21.4592 70.7041 21.4592H68.7809C67.4495 21.4592 66.1178 21.3099 64.934 21.4592C62.8625 21.7575 60.7915 22.2051 58.7202 22.2051C56.6487 22.0558 55.1695 24.1439 55.6132 26.0827C55.7612 26.5302 55.9088 26.9778 56.0569 27.4249C54.8732 27.7232 54.7253 28.6181 54.5777 29.513C54.4297 31.1536 53.0981 32.0482 51.9144 32.645C51.1744 32.943 50.1391 32.645 49.2513 32.3467C47.92 31.8993 46.736 31.1537 45.4042 30.5572C45.1086 31.3029 44.6647 32.0483 45.8482 32.4959C46.1439 32.6451 46.2922 33.0923 46.2922 33.3907C46.1439 35.6279 45.9963 37.7157 45.7004 39.9526C45.5521 40.6984 45.1086 41.1458 44.2207 40.6984C44.0724 40.6984 43.4808 40.9966 43.4808 41.1458C43.6291 41.8914 43.6291 42.7862 44.0724 43.3829C46.144 45.7691 47.4755 48.6026 48.5112 51.4366C48.8068 52.182 49.399 52.9278 49.6949 53.8226C50.4349 56.0597 49.843 58.1477 49.6949 60.3846C49.5468 61.2793 49.6949 62.174 49.6949 63.2181C49.6949 63.8147 49.6949 64.4116 49.5468 65.0079C49.399 65.7537 49.2512 66.4994 49.1031 67.2451C49.1031 69.6313 50.2871 71.4209 52.5062 72.3159C52.9497 72.4651 53.2457 72.6137 53.5419 72.9123C53.8375 73.2106 53.9854 73.6582 53.8375 73.9563C53.8375 74.1055 53.2455 74.4038 53.0975 74.4038L47.7711 73.9563H45.5517C44.6644 73.9563 44.2204 73.6582 44.5161 72.6143C44.812 70.8244 45.7 69.0353 45.2563 67.0964C45.108 66.2016 44.8123 65.3065 44.6645 64.4119C44.3686 62.7715 44.0724 61.2799 44.0724 59.6395C44.0724 58.7445 44.5164 57.9989 44.6645 57.1041C44.9601 55.9107 44.5164 55.6128 43.3329 55.3142C42.8892 55.3142 42.297 54.8669 41.8535 54.4195C40.9657 53.2262 40.2263 52.0335 39.3383 50.691C39.1904 50.5418 39.0427 50.0946 38.8947 50.0946C37.7109 50.2436 37.2671 49.1995 36.6753 48.1556C35.7876 50.0946 34.8996 51.735 34.1602 53.3754C34.0122 53.8228 34.0122 54.4193 33.7163 54.8668C33.5682 55.3141 33.2724 55.9107 32.9765 56.358C32.2363 57.5515 31.4969 58.5954 30.7568 59.6395C30.7568 59.7884 30.6091 59.7884 30.6091 59.9374C31.0529 62.4729 29.2778 64.4117 28.5377 66.4995C28.3896 67.2452 27.3539 67.6925 27.058 68.4379C26.3182 70.0789 26.0224 71.7194 26.7625 73.509C27.2062 74.5529 26.9106 75 25.7268 75H23.2118C22.3239 75 21.88 74.4036 22.0281 73.509C22.3236 71.8685 22.7679 70.2278 23.0637 68.5874C23.2118 67.8414 23.0637 66.947 23.2118 66.052C23.3596 65.1573 23.5073 64.4117 23.6553 63.5168C23.951 62.6218 24.0993 61.7272 24.543 60.832C24.9866 59.7881 25.4306 58.7441 26.0223 57.7004C26.4662 56.9543 26.9102 56.3579 27.2062 55.6124C27.354 55.3139 27.5019 54.8663 27.5019 54.419L27.9458 48.6025C27.9458 48.1552 27.7978 47.5585 27.7978 47.111C27.7978 46.067 27.6497 45.0231 27.6497 43.9791C27.6497 43.6811 27.7978 43.2335 27.9456 43.2335C28.9813 42.9351 28.5373 42.1894 28.5373 41.7422C28.3892 40.5489 28.2418 39.505 28.0934 38.312C28.5391 37.4169 28.3914 36.373 29.723 35.9257ZM51.3236 26.53C51.9152 25.486 52.6549 24.7401 53.0991 23.8455C53.2467 23.5473 53.0991 22.9506 52.8034 22.8015C52.6551 22.652 52.0632 22.8015 51.7678 22.9506C51.1755 23.3981 50.8797 23.9945 50.2881 24.7401C50.5839 25.1877 50.8796 25.7842 51.3236 26.53Z" fill="#141414"/>
</svg>

<svg width="80" height="80" fill="none" xmlns="http://www.w3.org/2000/svg"><circle cx="40" cy="40" r="40" fill="#FE9A02"/><path d="M29.723 35.926c-2.071-.597-1.924-.597-1.628-2.536.148-1.193.296-2.237.296-3.43 0-.894.296-1.193 1.184-1.193 1.627 0 1.48 0 1.331-1.64-.296-2.536.148-4.922 1.627-7.01.888-1.194 1.924-1.79 3.404-1.939.295 0 .591 0 .887.15.296 0 .592.148.888.297 0-.298.148-.746 0-1.044-.888-2.982 1.035-6.263 4.142-6.561 1.036-.15 2.072.596 2.96.894 1.774.447 1.922 2.088 2.07 3.58.148.894.148 1.938-1.183 2.386-.296.149-.444 1.044-.592 1.64 1.775.447 1.775-.298 3.403-.895 1.627.299 1.331.746 2.367.746h11.096c.592 0 1.036.299 1.627.447 0-.596.888-.149 1.332 1.044 1.331-.148 2.663-.148 3.847-.298.592 0 1.331 0 1.923.15.148 0 .296.298.296.298 0 .149-.296.447-.296.447h-1.923c-1.332 0-2.663-.15-3.847 0-2.072.299-4.142.746-6.214.746-2.071-.15-3.55 1.939-3.107 3.878l.444 1.342c-1.184.298-1.332 1.193-1.48 2.088-.147 1.64-1.479 2.535-2.663 3.132-.74.298-1.775 0-2.663-.298-1.331-.448-2.515-1.193-3.847-1.79-.295.746-.74 1.491.444 1.939.296.15.444.596.444.895-.148 2.237-.296 4.325-.592 6.562-.148.745-.591 1.193-1.48.745-.148 0-.74.299-.74.448.15.745.15 1.64.592 2.237 2.072 2.386 3.403 5.22 4.44 8.054.295.745.887 1.49 1.183 2.386.74 2.237.148 4.325 0 6.562-.148.894 0 1.789 0 2.833 0 .597 0 1.194-.148 1.79l-.444 2.237c0 2.386 1.184 4.176 3.403 5.07.444.15.74.299 1.036.597.295.299.443.746.295 1.044 0 .15-.592.448-.74.448l-5.326-.448h-2.22c-.887 0-1.33-.298-1.035-1.342.296-1.79 1.184-3.579.74-5.518-.148-.894-.444-1.79-.592-2.684-.295-1.64-.592-3.132-.592-4.773 0-.895.444-1.64.592-2.535.296-1.193-.148-1.491-1.331-1.79-.444 0-1.036-.447-1.48-.895-.887-1.193-1.627-2.386-2.515-3.728-.148-.15-.295-.596-.443-.596-1.184.149-1.628-.895-2.22-1.94-.887 1.94-1.775 3.58-2.515 5.22-.148.448-.148 1.044-.444 1.492a6.995 6.995 0 0 1-.74 1.491c-.74 1.194-1.48 2.237-2.22 3.282 0 .148-.147.148-.147.297.444 2.536-1.331 4.475-2.071 6.563-.148.745-1.184 1.192-1.48 1.938-.74 1.64-1.036 3.281-.296 5.071.444 1.044.149 1.491-1.035 1.491h-2.515c-.888 0-1.332-.596-1.184-1.491.296-1.64.74-3.281 1.036-4.922.148-.746 0-1.64.148-2.535.148-.895.295-1.64.443-2.535.296-.895.444-1.79.888-2.685.444-1.044.888-2.088 1.48-3.132.443-.746.887-1.342 1.183-2.088.148-.298.296-.746.296-1.193l.444-5.816c0-.448-.148-1.044-.148-1.492 0-1.044-.148-2.088-.148-3.132 0-.298.148-.745.296-.745 1.035-.299.591-1.045.591-1.492-.148-1.193-.295-2.237-.444-3.43.446-.895.298-1.939 1.63-2.386Zm21.6-9.396c.592-1.044 1.332-1.79 1.776-2.684.148-.299 0-.895-.296-1.044-.148-.15-.74 0-1.035.149-.593.447-.888 1.043-1.48 1.79.296.447.592 1.043 1.036 1.789Z" fill="#141414"/></svg>
